usr/share/icons/big-icons/symbolic/actions/snap-grid-guide-intersections.svg

<svg xmlns="http://www.w3.org/2000/svg" viewBox="0 0 16 16">
  <defs id="defs3051">
    <style type="text/css" id="current-color-scheme">
      .ColorScheme-Text {
        color:#eff0f1;
      }
      .ColorScheme-Highlight {
        color:#3daee9;
      }
      </style>
  </defs>
  <path 
        style="fill:currentColor;fill-opacity:1;stroke:none"
        d="M 4 2 L 4 6 L 6 4 L 4 2 z M 7 2 L 7 9 L 8 9 L 8 2 L 7 2 z M 11 2 L 9 4 L 11 6 L 11 2 z M 13.449219 5.5 L 8.3632812 9.0019531 L 9.0058594 9.0019531 L 9.0058594 9.7773438 L 14.005859 6.3398438 L 13.449219 5.5 z M 6.0058594 10.625 L 2.3027344 13.179688 L 2.3066406 13.181641 L 2.8613281 14.001953 L 6.9335938 11.201172 L 6.5058594 11.201172 L 6.5058594 11.001953 L 6.0058594 11.001953 L 6.0058594 10.625 z M 7 12 L 7 14 L 8 14 L 8 12 L 7 12 z "
        class="ColorScheme-Text"
        />
  <path
        style="fill:currentColor;fill-opacity:1;stroke:none"
        d="m 5,8 0,4 5,0 0,-4 z m 1,1 3,0 0,2 -3,0 z"
        class="ColorScheme-Highlight"
      />
</svg>

<svg xmlns="http://www.w3.org/2000/svg" viewBox="0 0 16 16">
<defs id="defs3051">
<style id="current-color-scheme" type="text/css">
.ColorScheme-Text{color:#fcfcfc}.ColorScheme-Highlight{color:#3daee9}
</style>
</defs>
<path d="M4 2v4l2-2zm3 0v7h1V2zm4 0L9 4l2 2zm2.45 3.5L8.362 9.002h.643v.775l5-3.437zm-7.444 5.125L2.303 13.18l.004.002.554.82 4.073-2.8h-.428v-.2h-.5zM7 12v2h1v-2z" class="ColorScheme-Text" style="fill:currentColor;fill-opacity:1;stroke:none"/>
<path d="M5 8v4h5V8zm1 1h3v2H6z" class="ColorScheme-Highlight" style="fill:currentColor;fill-opacity:1;stroke:none"/>
</svg>
